X: 17170
T: Henchey's Delight
R: jig
M: 6/8
K: Gmajor
A|:B^AB GFG|ADE F2 G|A^GA fed|cAG FGA|
B2 B GFG|ADE F2 G|A^GA fed|1 cAF d^c=c:|2 cAF G2||
|:d|gfg afd|gfg a2 b|gfg b2 g|a/b/ag fga|
gfe fed|fed ^cde|fef ded|cAF G2:|

